X:1     %Music
B:Broadwood, Lucy, 1893, English Country Songs, Leadenhall Press, London
S:Miss Mason's Nursery Rhymes and Country Songs
Z:Lucy Broadwood
T:The Spider
M:4/4     %Meter
L:1/8     %
K:Dm
d2 |d2 d2 d2 d2 |(d4A) z A2 |d2 A2 A2 F2 | E4 z2
w:It was one sum-mer's morn-ing, As I lay on my bed,
E2 |E2 f2 e2 e2 |(d4A) z A2 |A2 d2 d2 ^c2 | d4 z2 
w: I spied an an-cient spi-der A-spin-ning of her thread.
d2 |d2 d2 d2 A2 |c2 c2 c2 A2 |d2 A2 (AB/A/G) F | E4 z2
w:She wove it in a sun-ny beam, As clear as glass___ might be 
 E2 |D2 f2 e2 ^c2 |d2 d2 A2 A2 |d2 d2 (ef/e/d) ^c | d4 |]
w:The old-est nun that ev-er spun Ne'er spun so fine___ as she. 
  